X: 25663
T: Martin Rochford's
R: reel
M: 4/4
K: Gmajor
GEDE GABd|dBeB dBAB|GEDE GBeB|dBAB GEED|
GEDE GABd|dBeB dBAB|GEDE GBeB|dBAc BEED||
g3e f2 ed|Be e2 Be e2|gfeg fedB|AcBA GEED|
g3e f2 ed|Beed e3f|gabg fgaf|dBAc BEED||

